src/images/icons/expenses/tools.svg

<svg width="56" height="56" viewBox="0 0 56 56" fill="none" xmlns="http://www.w3.org/2000/svg">
<g clip-path="url(#clip0_15_595)">
<path d="M37.9904 16.9692C37.3867 16.9692 36.8966 17.458 36.8966 18.0626C36.8966 18.6667 37.3867 19.1563 37.9904 19.1563C38.5953 19.1563 39.0841 18.6667 39.0841 18.0626C39.0841 17.458 38.5953 16.9692 37.9904 16.9692Z" fill="#071F41"/>
<path d="M18.1174 36.8418C17.5125 36.8418 17.0237 37.3318 17.0237 37.9355C17.0237 38.5405 17.5125 39.0293 18.1174 39.0293C18.7211 39.0293 19.2112 38.5405 19.2112 37.9355C19.2112 37.3318 18.7211 36.8418 18.1174 36.8418Z" fill="#071F41"/>
<path d="M54.6939 6.72881C54.3248 6.64293 53.9369 6.75444 53.6703 7.02361L49.1359 11.5939H46.9621L44.5691 9.11455V6.91039L49.0385 2.37431C49.303 2.106 49.4106 1.7202 49.323 1.35319C49.2359 0.986616 48.9659 0.690961 48.6087 0.570478C47.4859 0.191937 46.3109 0.000103766 45.1159 0.000103766C41.5536 0.000103766 38.3172 1.66124 36.2365 4.55754C34.2891 7.26885 33.6888 10.5915 34.5489 13.7715L26.4923 21.8281L13.0699 8.37499V5.7346C13.0699 5.35051 12.8682 4.99419 12.5388 4.7968L4.80524 0.156049C4.37458 -0.102435 3.82386 -0.0345032 3.46924 0.320539L0.375977 3.41337C0.0213622 3.76842 -0.0465699 4.31914 0.211487 4.7498L4.85138 12.4834C5.04877 12.8128 5.40467 13.014 5.78876 13.0145L8.42829 13.0153L21.8519 26.4684L13.8261 34.4943C10.6461 33.6346 7.32172 34.2358 4.60913 36.1845C1.71454 38.2639 0.0546875 41.4994 0.0546875 45.0618C0.0546875 46.2564 0.246521 47.4317 0.625061 48.5541C0.745972 48.9134 1.04462 49.1847 1.41376 49.2702C1.78333 49.356 2.17084 49.2445 2.43787 48.9754L6.97181 44.4055H9.1576L11.648 46.8959V49.0817L7.07819 53.6157C6.80903 53.8827 6.69751 54.2702 6.78339 54.6398C6.86884 55.0089 7.14014 55.3076 7.49946 55.4285C8.62183 55.807 9.79719 55.9989 10.9918 55.9989C14.5541 55.9989 17.7893 54.3386 19.8691 51.444C21.8178 48.7314 22.4189 45.4074 21.5593 42.2274L28.0051 35.7816L29.4817 37.3854L28.8041 38.0626C28.3769 38.4899 28.3769 39.1824 28.8041 39.6097C29.2313 40.0365 29.9235 40.0365 30.3512 39.6097L30.9647 38.9962L44.8186 54.0446C44.8288 54.0557 44.8395 54.0664 44.8502 54.0771C47.4137 56.6406 51.5669 56.6414 54.1317 54.0767C56.6892 51.5179 56.6892 47.3544 54.1317 44.7956C54.1206 44.7845 54.109 44.7738 54.0975 44.7631L39.0255 30.9357L39.6322 30.329C40.0595 29.9022 40.0595 29.2097 39.6322 28.7824C39.205 28.3552 38.5128 28.3552 38.0852 28.7824L37.4123 29.4557L35.8054 27.9809L42.2824 21.5038C43.2032 21.7499 44.1534 21.8747 45.1159 21.8747C51.1469 21.8747 56.053 16.9682 56.053 10.9376C56.053 9.7426 55.8612 8.56767 55.4826 7.44487C55.3617 7.08556 55.0631 6.81426 54.6939 6.72881ZM9.6562 11.1491C9.45112 10.9436 9.17298 10.8389 8.88245 10.8389L6.4087 10.8381L2.52674 4.35673L4.41217 2.4713L10.8824 6.35411V8.82787C10.8824 9.11754 10.9973 9.39525 11.202 9.60033L24.9456 23.3752L23.3986 24.9218L9.6562 11.1491ZM37.4772 32.4841L52.6004 46.358C54.2898 48.0653 54.2846 50.8296 52.5846 52.5305C50.8808 54.2343 48.1225 54.2395 46.4118 52.5454L32.5126 37.4478L37.4772 32.4841ZM35.8639 31.0037L31.0296 35.8371L29.5531 34.2332L34.257 29.5288L35.8639 31.0037ZM45.1159 19.6872C44.1593 19.6872 43.2185 19.5338 42.3205 19.2313C41.927 19.0993 41.492 19.201 41.1981 19.4945C35.7148 24.9778 23.8997 36.7924 19.5491 41.1435C19.2551 41.4374 19.153 41.8724 19.2859 42.2663C20.1951 44.9661 19.7601 47.8457 18.0922 50.1678C16.4289 52.483 13.8406 53.8114 10.9918 53.8114C10.6718 53.8114 10.3535 53.7938 10.0382 53.7601L13.5121 50.3131C13.7189 50.108 13.8355 49.8286 13.8355 49.5368V46.4426C13.8355 46.1525 13.7202 45.8744 13.5151 45.6693L10.3838 42.538C10.1787 42.333 9.90058 42.2176 9.61048 42.2176H6.51636C6.22455 42.2176 5.94513 42.3342 5.73963 42.541L2.29303 46.015C2.25885 45.6997 2.24176 45.3814 2.24176 45.0613C2.24176 42.212 3.56964 39.6242 5.88532 37.9609C8.20698 36.293 11.087 35.8576 13.7872 36.7672C14.1807 36.9001 14.6157 36.798 14.9096 36.504C14.9699 36.4442 36.5432 14.8704 36.5586 14.855C36.8526 14.5611 36.9543 14.1266 36.8218 13.7327C35.9122 11.0329 36.3463 8.1541 38.013 5.83373C39.6775 3.51634 42.2662 2.18761 45.1155 2.18761C45.4453 2.18761 45.773 2.20598 46.0977 2.24187L42.696 5.69444C42.4944 5.89909 42.3816 6.17467 42.3816 6.46178V9.5559C42.3816 9.83959 42.4914 10.1117 42.6883 10.3155L45.7102 13.4468C45.9162 13.6605 46.2003 13.7809 46.4972 13.7809H49.5913C49.8827 13.7809 50.1621 13.6647 50.3676 13.4575L53.8142 9.984C53.8484 10.2993 53.8655 10.6176 53.8655 10.9376C53.8655 15.7621 49.9404 19.6872 45.1159 19.6872Z" fill="#071F41"/>
<path d="M34.1238 20.3824L20.4369 34.0693C20.0101 34.4961 20.0101 35.1887 20.4369 35.6159C20.8642 36.0432 21.5567 36.0432 21.984 35.6159L35.6708 21.9291C36.0981 21.5023 36.0981 20.8097 35.6708 20.3824C35.2436 19.9552 34.551 19.9552 34.1238 20.3824Z" fill="#071F41"/>
<path d="M47.9451 49.4375C48.3724 49.8634 49.0649 49.8634 49.4922 49.4349C49.9186 49.0072 49.9173 48.3147 49.4896 47.8883L39.6309 38.0612C39.2032 37.6348 38.5102 37.6361 38.0843 38.0637C37.6574 38.4918 37.6587 39.184 38.0864 39.6104L47.9451 49.4375Z" fill="#071F41"/>
</g>
<defs>
<clipPath id="clip0_15_595">
<rect width="55.8907" height="56" fill="white"/>
</clipPath>
</defs>
</svg>

<!-- Generated by IcoMoon.io -->
<svg version="1.1" xmlns="http://www.w3.org/2000/svg" width="56" height="56" viewBox="0 0 56 56">
<title>tools</title>
<path d="M37.99 16.969c-0.604 0-1.094 0.489-1.094 1.093s0.49 1.094 1.094 1.094c0.605 0 1.094-0.49 1.094-1.094s-0.489-1.093-1.094-1.093z"></path>
<path d="M18.117 36.842c-0.605 0-1.094 0.49-1.094 1.094 0 0.605 0.489 1.094 1.094 1.094 0.604 0 1.094-0.489 1.094-1.094 0-0.604-0.49-1.094-1.094-1.094z"></path>
<path d="M54.694 6.729c-0.369-0.086-0.757 0.026-1.024 0.295l-4.534 4.57h-2.174l-2.393-2.479v-2.204l4.469-4.536c0.265-0.268 0.372-0.654 0.284-1.021s-0.357-0.662-0.714-0.783c-1.123-0.379-2.298-0.57-3.493-0.57-3.562 0-6.799 1.661-8.879 4.557-1.947 2.711-2.548 6.034-1.688 9.214l-8.057 8.057-13.422-13.453v-2.64c0-0.384-0.202-0.74-0.531-0.938l-7.734-4.641c-0.431-0.259-0.981-0.191-1.336 0.164l-3.093 3.093c-0.355 0.355-0.423 0.906-0.165 1.336l4.64 7.734c0.197 0.329 0.553 0.531 0.937 0.531l2.64 0.001 13.424 13.453-8.026 8.026c-3.18-0.86-6.504-0.259-9.217 1.69-2.895 2.079-4.554 5.315-4.554 8.877 0 1.195 0.192 2.37 0.57 3.492 0.121 0.359 0.42 0.631 0.789 0.716s0.757-0.026 1.024-0.295l4.534-4.57h2.186l2.49 2.49v2.186l-4.57 4.534c-0.269 0.267-0.381 0.654-0.295 1.024s0.357 0.668 0.716 0.789c1.122 0.378 2.298 0.57 3.492 0.57 3.562 0 6.797-1.66 8.877-4.555 1.949-2.713 2.55-6.037 1.69-9.217l6.446-6.446 1.477 1.604-0.678 0.677c-0.427 0.427-0.427 1.12 0 1.547s1.119 0.427 1.547 0l0.613-0.613 13.854 15.048c0.010 0.011 0.021 0.022 0.032 0.032 2.563 2.563 6.717 2.564 9.282-0 2.558-2.559 2.558-6.722 0-9.281-0.011-0.011-0.023-0.022-0.034-0.032l-15.072-13.827 0.607-0.607c0.427-0.427 0.427-1.119 0-1.547s-1.119-0.427-1.547 0l-0.673 0.673-1.607-1.475 6.477-6.477c0.921 0.246 1.871 0.371 2.834 0.371 6.031 0 10.937-4.907 10.937-10.937 0-1.195-0.192-2.37-0.57-3.493-0.121-0.359-0.42-0.631-0.789-0.716zM9.656 11.149c-0.205-0.206-0.483-0.31-0.774-0.31l-2.474-0.001-3.882-6.481 1.885-1.885 6.47 3.883v2.474c0 0.29 0.115 0.567 0.32 0.772l13.744 13.775-1.547 1.547-13.742-13.773zM37.477 32.484l15.123 13.874c1.689 1.707 1.684 4.472-0.016 6.173-1.704 1.704-4.462 1.709-6.173 0.015l-13.899-15.098 4.965-4.964zM35.864 31.004l-4.834 4.833-1.477-1.604 4.704-4.704 1.607 1.475zM45.116 19.687c-0.957 0-1.897-0.153-2.795-0.456-0.393-0.132-0.829-0.030-1.122 0.263-5.483 5.483-17.298 17.298-21.649 21.649-0.294 0.294-0.396 0.729-0.263 1.123 0.909 2.7 0.474 5.579-1.194 7.902-1.663 2.315-4.252 3.644-7.1 3.644-0.32 0-0.638-0.018-0.954-0.051l3.474-3.447c0.207-0.205 0.323-0.484 0.323-0.776v-3.094c0-0.29-0.115-0.568-0.32-0.773l-3.131-3.131c-0.205-0.205-0.483-0.32-0.773-0.32h-3.094c-0.292 0-0.571 0.117-0.777 0.323l-3.447 3.474c-0.034-0.315-0.051-0.634-0.051-0.954 0-2.849 1.328-5.437 3.644-7.1 2.322-1.668 5.202-2.103 7.902-1.194 0.393 0.133 0.829 0.031 1.122-0.263 0.060-0.060 21.634-21.634 21.649-21.649 0.294-0.294 0.396-0.728 0.263-1.122-0.91-2.7-0.476-5.579 1.191-7.899 1.665-2.317 4.253-3.646 7.102-3.646 0.33 0 0.658 0.018 0.982 0.054l-3.402 3.453c-0.202 0.205-0.314 0.48-0.314 0.767v3.094c0 0.284 0.11 0.556 0.307 0.76l3.022 3.131c0.206 0.214 0.49 0.334 0.787 0.334h3.094c0.291 0 0.571-0.116 0.776-0.323l3.447-3.473c0.034 0.315 0.051 0.634 0.051 0.954 0 4.824-3.925 8.75-8.75 8.75z"></path>
<path d="M34.124 20.382l-13.687 13.687c-0.427 0.427-0.427 1.119 0 1.547s1.12 0.427 1.547 0l13.687-13.687c0.427-0.427 0.427-1.119 0-1.547s-1.12-0.427-1.547 0z"></path>
<path d="M47.945 49.438c0.427 0.426 1.12 0.426 1.547-0.003s0.425-1.12-0.003-1.547l-9.859-9.827c-0.428-0.426-1.121-0.425-1.547 0.003s-0.426 1.12 0.002 1.547l9.859 9.827z"></path>
</svg>
